X: 1
T: Bowe's Favourite
M: 4/4
L: 1/8
R: reel
K: Edor
|:D|B,E~E2 GEED|EDA,D FBAF|GE~E2 BE~E2|FAdA BAGF|
EB,~B,2 GB,~B,2|EDA,D FBAF|GE~E2 BE~E2|BdAF GEE:|
|:B|e2ge edAd|edad bdad|edef gfga|bagf ebaf|
geed edBd|AFDF dAFD|B,E~E2 GB,~B,2|BdAF GEE:|
